app/dist/common/images/south-plains-financial.svg

<svg height="18" viewBox="0 0 18 18" width="18" xmlns="http://www.w3.org/2000/svg" xmlns:xlink="http://www.w3.org/1999/xlink"><linearGradient id="a" gradientUnits="userSpaceOnUse" x1="9" x2="9" y1="8.04" y2="14"><stop offset="0" stop-color="#a20c10"/><stop offset="1" stop-color="#ed1c24"/></linearGradient><linearGradient id="b" gradientUnits="userSpaceOnUse" x1="9.01" x2="9.01" y1="8.66" y2="12.46"><stop offset="0" stop-color="#fff"/><stop offset=".08" stop-color="#dddedf"/></linearGradient><linearGradient id="c" gradientUnits="userSpaceOnUse" x1="9.08" x2="9" y1="7.39" y2="10.6"><stop offset=".47" stop-color="#fff"/><stop offset=".52" stop-color="#dddedf"/></linearGradient><path d="m0 0h18v18h-18z" fill="#f0f3fa"/><path d="m4 5.63c0-.9.73-1.63 1.63-1.63h6.74c.9 0 1.63.73 1.63 1.63v6.74c0 .9-.73 1.63-1.63 1.63h-6.74c-.9 0-1.63-.73-1.63-1.63z" fill="#f89e94"/><path d="m14 8.06v4.3c0 .91-.73 1.64-1.63 1.64h-6.74c-.9 0-1.63-.73-1.63-1.63v-4.33c1.82.7 5.81 1.46 10 .02z" fill="url(#a)"/><path d="m9.01 12.22a3.26 3.26 0 1 0 .02-6.52 3.26 3.26 0 0 0 -.03 6.52zm0 .24a3.5 3.5 0 1 0 .02-7 3.5 3.5 0 0 0 -.02 7z" fill="url(#b)" fill-rule="evenodd"/><path d="m9.01 10.41a1.44 1.44 0 1 0 .01-2.89 1.44 1.44 0 0 0 0 2.9zm0 .25a1.69 1.69 0 1 0 .01-3.38 1.69 1.69 0 0 0 0 3.38z" fill="#f0f3fa" fill-rule="evenodd"/><path d="m8.88 10.6v-3.2h.24v3.21h-.24z" fill="url(#c)"/><path d="m6.77 8.96a9.9 9.9 0 0 0 -.25-.03l.03-.24.25.03c.7.09 2.14.28 4.62-.03l.03.24a16.9 16.9 0 0 1 -4.68.03z" fill="#dddedf"/><path d="m9.65 5.25h-1.31l.66 2.59z" fill="#f0f3fa"/><path d="m9.65 12.75h-1.31l.66-2.59z" fill="#dddedf"/><path d="m11.45 6.03-1.14-.64-.71 2.57zm-4.9 0 1.14-.64.71 2.57z" fill="#f0f3fa"/><path d="m11.45 11.88-1.14.65-.71-2.58zm-4.9 0 1.14.65.71-2.58z" fill="#dddedf"/><path d="m12.58 7.68-.67-1.13-1.9 1.88zm-7.18-.03.67-1.13 1.91 1.88-2.57-.75z" fill="#f0f3fa"/><path d="m12.55 10.27-.66 1.13-1.9-1.88zm-7.1 0 .66 1.13 1.9-1.88zm7.3-.62v-1.3l-2.6.65zm-7.5 0v-1.3l2.6.65z" fill="#dddedf"/></svg>

<!-- by TradingView --><svg width="18" height="18" viewBox="0 0 18 18" xmlns="http://www.w3.org/2000/svg"><path fill="#F0F3FA" d="M0 0h18v18H0z"/><path d="M4 5.63C4 4.73 4.73 4 5.63 4h6.74c.9 0 1.63.73 1.63 1.63v6.74c0 .9-.73 1.63-1.63 1.63H5.63C4.73 14 4 13.27 4 12.37V5.63Z" fill="#F89E94"/><path d="M14 8.06v4.3c0 .91-.73 1.64-1.63 1.64H5.63C4.73 14 4 13.27 4 12.37V8.04c1.82.7 5.81 1.46 10 .02Z" fill="url(#aawf33413)"/><path fill-rule="evenodd" d="M9.01 12.22a3.26 3.26 0 1 0 .02-6.52A3.26 3.26 0 0 0 9 12.22Zm0 .24a3.5 3.5 0 1 0 .02-7 3.5 3.5 0 0 0-.02 7Z" fill="url(#bawf33413)"/><path fill-rule="evenodd" d="M9.01 10.41a1.44 1.44 0 1 0 .01-2.89 1.44 1.44 0 0 0 0 2.9Zm0 .25a1.69 1.69 0 1 0 .01-3.38 1.69 1.69 0 0 0 0 3.38Z" fill="#F0F3FA"/><path d="M8.88 10.6V7.4h.24v3.21h-.24Z" fill="url(#cawf33413)"/><path d="M6.77 8.96a9.9 9.9 0 0 0-.25-.03l.03-.24.25.03c.7.09 2.14.28 4.62-.03l.03.24a16.9 16.9 0 0 1-4.68.03Z" fill="#DDDEDF"/><path d="M9.65 5.25H8.34L9 7.84l.65-2.59Z" fill="#F0F3FA"/><path d="M9.65 12.75H8.34L9 10.16l.65 2.59Z" fill="#DDDEDF"/><path d="m11.45 6.03-1.14-.64-.71 2.57 1.85-1.93ZM6.55 6.03l1.14-.64.71 2.57-1.85-1.93Z" fill="#F0F3FA"/><path d="m11.45 11.88-1.14.65-.71-2.58 1.85 1.93ZM6.55 11.88l1.14.65.71-2.58-1.85 1.93Z" fill="#DDDEDF"/><path d="m12.58 7.68-.67-1.13-1.9 1.88 2.57-.75ZM5.4 7.65l.67-1.13L7.98 8.4l-2.57-.75Z" fill="#F0F3FA"/><path d="m12.55 10.27-.66 1.13-1.9-1.88 2.56.75ZM5.45 10.27l.66 1.13 1.9-1.88-2.56.75ZM12.75 9.65v-1.3l-2.6.65 2.6.65ZM5.25 9.65v-1.3l2.6.65-2.6.65Z" fill="#DDDEDF"/><defs><linearGradient id="aawf33413" x1="9" y1="8.04" x2="9" y2="14" gradientUnits="userSpaceOnUse"><stop stop-color="#A20C10"/><stop offset="1" stop-color="#ED1C24"/></linearGradient><linearGradient id="bawf33413" x1="9.01" y1="8.66" x2="9.01" y2="12.46" gradientUnits="userSpaceOnUse"><stop stop-color="#fff"/><stop offset=".08" stop-color="#DDDEDF"/></linearGradient><linearGradient id="cawf33413" x1="9.08" y1="7.39" x2="9" y2="10.6" gradientUnits="userSpaceOnUse"><stop offset=".47" stop-color="#fff"/><stop offset=".52" stop-color="#DDDEDF"/></linearGradient></defs></svg>
